X:1620
T:Lad O'Beirne's
M:C|
L:1/8
R:reel
D:Brenda McCann: Inishkeeragh
Z:Devin McCabe
K:F
d2cA dAcA|GcAF GFDF|C~F3 CFAc|dcde fagf|
!d2cA dAcA|GcAF GFDF|CFAF DFBd|cfag e~f3:|
!afgf afgf|dgfd cdAB|BccB cdfa|~g3~g- g2 fg|
!afgf afgf|dgfd cdAB|BccB cdfa|~g3~f- f2fg|
!afgf afgf|dgfd cdAB|BccB cdfa|~g3a bagf|
!afge ~f2fc|defd cAFD|CFAF DFBd|cfag e~f3||
